humanity-icon-theme/Humanity/apps/64/gksu-root-terminal.svg

<?xml version="1.0" encoding="UTF-8" standalone="no"?>
<!-- Created with Inkscape (http://www.inkscape.org/) -->

<svg
   xmlns:dc="http://purl.org/dc/elements/1.1/"
   xmlns:cc="http://creativecommons.org/ns#"
   xmlns:rdf="http://www.w3.org/1999/02/22-rdf-syntax-ns#"
   xmlns:svg="http://www.w3.org/2000/svg"
   xmlns="http://www.w3.org/2000/svg"
   xmlns:xlink="http://www.w3.org/1999/xlink"
   version="1.1"
   width="64"
   height="64"
   id="svg4813">
  <metadata
     id="metadata69">
    <rdf:RDF>
      <cc:Work
         rdf:about="">
        <dc:format>image/svg+xml</dc:format>
        <dc:type
           rdf:resource="http://purl.org/dc/dcmitype/StillImage" />
        <dc:title></dc:title>
      </cc:Work>
    </rdf:RDF>
  </metadata>
  <defs
     id="defs4815">
    <linearGradient
       id="linearGradient2223-4-6-9-7">
      <stop
         id="stop2225-6-4-7-2"
         style="stop-color:#ffffff;stop-opacity:1"
         offset="0" />
      <stop
         id="stop2229-2-5-5-8"
         style="stop-color:#ffffff;stop-opacity:0"
         offset="1" />
    </linearGradient>
    <linearGradient
       id="linearGradient8265-821-176-38-919-66-249-7-7-8-6">
      <stop
         id="stop2687-1-9-0-2"
         style="stop-color:#ffffff;stop-opacity:1"
         offset="0" />
      <stop
         id="stop2689-5-4-3-1"
         style="stop-color:#ffffff;stop-opacity:0"
         offset="1" />
    </linearGradient>
    <linearGradient
       id="linearGradient3680-6">
      <stop
         id="stop3682-4"
         style="stop-color:#dcdcdc;stop-opacity:1"
         offset="0" />
      <stop
         id="stop3684-8"
         style="stop-color:#ffffff;stop-opacity:1"
         offset="1" />
    </linearGradient>
    <linearGradient
       id="linearGradient2238-2-3-3-1">
      <stop
         id="stop2240-1-6-7-0"
         style="stop-color:#ffffff;stop-opacity:1"
         offset="0" />
      <stop
         id="stop2242-7-3-7-2"
         style="stop-color:#ffffff;stop-opacity:0"
         offset="1" />
    </linearGradient>
    <linearGradient
       id="linearGradient2223-4-6-9">
      <stop
         id="stop2225-6-4-7"
         style="stop-color:#ffffff;stop-opacity:1"
         offset="0" />
      <stop
         id="stop2229-2-5-5"
         style="stop-color:#ffffff;stop-opacity:0"
         offset="1" />
    </linearGradient>
    <linearGradient
       id="linearGradient3994-617-9-9">
      <stop
         id="stop4324-9-7"
         style="stop-color:#f0f0f0;stop-opacity:1"
         offset="0" />
      <stop
         id="stop2860-4-4"
         style="stop-color:#d7d7d8;stop-opacity:1"
         offset="0.08552461" />
      <stop
         id="stop2862-5-9"
         style="stop-color:#b2b2b3;stop-opacity:1"
         offset="0.92166406" />
      <stop
         id="stop4326-1-1"
         style="stop-color:#979798;stop-opacity:1"
         offset="1" />
    </linearGradient>
    <linearGradient
       id="linearGradient4008-764-3-0">
      <stop
         id="stop4334-7-6"
         style="stop-color:#595959;stop-opacity:1"
         offset="0" />
      <stop
         id="stop4336-8-0"
         style="stop-color:#b3b3b3;stop-opacity:1"
         offset="1" />
    </linearGradient>
    <linearGradient
       id="linearGradient5060-6-6-5">
      <stop
         id="stop5062-3-0-3"
         style="stop-color:#000000;stop-opacity:1"
         offset="0" />
      <stop
         id="stop5064-1-4-9"
         style="stop-color:#000000;stop-opacity:0"
         offset="1" />
    </linearGradient>
    <linearGradient
       id="linearGradient5048-7-7-5">
      <stop
         id="stop5050-5-6-4"
         style="stop-color:#000000;stop-opacity:0"
         offset="0" />
      <stop
         id="stop5056-9-0-1"
         style="stop-color:#000000;stop-opacity:1"
         offset="0.5" />
      <stop
         id="stop5052-6-9-5"
         style="stop-color:#000000;stop-opacity:0"
         offset="1" />
    </linearGradient>
    <linearGradient
       x1="16.142857"
       y1="4.000001"
       x2="16.142857"
       y2="44.000256"
       id="linearGradient3652"
       xlink:href="#linearGradient2223-4-6-9-7"
       gradientUnits="userSpaceOnUse"
       gradientTransform="matrix(1.2051977,0,0,0.94878778,3.075247,12.229094)" />
    <linearGradient
       x1="16.626165"
       y1="15.298182"
       x2="20.054544"
       y2="24.627615"
       id="linearGradient3655"
       xlink:href="#linearGradient8265-821-176-38-919-66-249-7-7-8-6"
       gradientUnits="userSpaceOnUse"
       gradientTransform="matrix(1.262585,0,0,1.3398457,1.6979659,3.0027888)" />
    <linearGradient
       x1="16"
       y1="27.045361"
       x2="16"
       y2="16"
       id="linearGradient3658"
       xlink:href="#linearGradient3680-6"
       gradientUnits="userSpaceOnUse"
       gradientTransform="matrix(1.3714286,0,0,1.3636364,-1.7142912,-0.81819228)" />
    <linearGradient
       x1="20"
       y1="28"
       x2="20"
       y2="26"
       id="linearGradient3662"
       xlink:href="#linearGradient3680-6"
       gradientUnits="userSpaceOnUse"
       gradientTransform="matrix(1.3750001,0,0,1.4999998,-0.75000621,-2.999996)" />
    <linearGradient
       x1="12.578789"
       y1="2.9165411"
       x2="12.213111"
       y2="47.278698"
       id="linearGradient3666"
       xlink:href="#linearGradient2238-2-3-3-1"
       gradientUnits="userSpaceOnUse"
       gradientTransform="matrix(1.2654815,0,0,1.2039404,1.6268987,7.3165721)" />
    <linearGradient
       x1="23.070969"
       y1="36.046932"
       x2="23.070969"
       y2="33.296398"
       id="linearGradient3669"
       xlink:href="#linearGradient2223-4-6-9"
       gradientUnits="userSpaceOnUse"
       gradientTransform="matrix(1.2960111,0,0,1.3377808,0.90330602,8.2994254)" />
    <radialGradient
       cx="7.4956832"
       cy="8.4497671"
       r="19.99999"
       fx="7.4956832"
       fy="8.4497671"
       id="radialGradient3672"
       xlink:href="#linearGradient3242-593-605-251-305"
       gradientUnits="userSpaceOnUse"
       gradientTransform="matrix(0,2.2999353,-3.8677111,-9.7048141e-8,64.681386,-1.1584378)" />
    <linearGradient
       x1="5.2280331"
       y1="42.854282"
       x2="5.2280331"
       y2="4.5745859"
       id="linearGradient3674"
       xlink:href="#linearGradient3332-412-419-652-471"
       gradientUnits="userSpaceOnUse"
       gradientTransform="matrix(1.2564826,0,0,1.0000736,1.8444184,10.998238)" />
    <linearGradient
       x1="23.999996"
       y1="7.9600015"
       x2="23.999996"
       y2="43.865456"
       id="linearGradient3677"
       xlink:href="#linearGradient3994-617-9-9"
       gradientUnits="userSpaceOnUse"
       gradientTransform="matrix(1.3111259,0,0,1.324343,0.53297473,0.5670795)" />
    <linearGradient
       x1="10.014208"
       y1="44.960102"
       x2="10.014208"
       y2="2.8764627"
       id="linearGradient3679"
       xlink:href="#linearGradient4008-764-3-0"
       gradientUnits="userSpaceOnUse"
       gradientTransform="matrix(1.2553396,0,0,1.1965051,1.8718702,6.2692116)" />
    <radialGradient
       cx="605.71429"
       cy="486.64789"
       r="117.14286"
       fx="605.71429"
       fy="486.64789"
       id="radialGradient3682"
       xlink:href="#linearGradient5060-6-6-5"
       gradientUnits="userSpaceOnUse"
       gradientTransform="matrix(-0.08744973,0,0,0.03294117,63.589628,42.588843)" />
    <radialGradient
       cx="605.71429"
       cy="486.64789"
       r="117.14286"
       fx="605.71429"
       fy="486.64789"
       id="radialGradient3685"
       xlink:href="#linearGradient5060-6-6-5"
       gradientUnits="userSpaceOnUse"
       gradientTransform="matrix(0.08744973,0,0,0.03294117,0.41038411,42.588843)" />
    <linearGradient
       x1="302.85715"
       y1="366.64789"
       x2="302.85715"
       y2="609.50507"
       id="linearGradient3688"
       xlink:href="#linearGradient5048-7-7-5"
       gradientUnits="userSpaceOnUse"
       gradientTransform="matrix(0.08744973,0,0,0.03294117,0.39317023,42.588843)" />
    <linearGradient
       id="linearGradient3242-593-605-251-305">
      <stop
         id="stop2749"
         style="stop-color:#d78ec1;stop-opacity:1"
         offset="0" />
      <stop
         id="stop2751"
         style="stop-color:#c564be;stop-opacity:1"
         offset="0.26238" />
      <stop
         id="stop2753"
         style="stop-color:#9d3ea4;stop-opacity:1"
         offset="0.66093999" />
      <stop
         id="stop2755"
         style="stop-color:#5e2c73;stop-opacity:1"
         offset="1" />
    </linearGradient>
    <linearGradient
       id="linearGradient3332-412-419-652-471">
      <stop
         id="stop2759"
         style="stop-color:#650d5c;stop-opacity:1"
         offset="0" />
      <stop
         id="stop2761"
         style="stop-color:#5e2c59;stop-opacity:1"
         offset="1" />
    </linearGradient>
  </defs>
  <rect
     width="42.225719"
     height="8"
     x="10.887152"
     y="54.666664"
     id="rect2512-9-5"
     style="opacity:0.40206185;fill:url(#linearGradient3688);fill-opacity:1;fill-rule:nonzero;stroke:none;stroke-width:1;marker:none;visibility:visible;display:inline;overflow:visible" />
  <path
     d="m 53.112863,54.666932 c 0,0 0,7.999558 0,7.999558 4.503444,0.01505 10.887135,-1.792294 10.887135,-4.000294 0,-2.207999 -5.025503,-3.999264 -10.887135,-3.999264 z"
     id="path2514-7-4"
     style="opacity:0.40206185;fill:url(#radialGradient3685);fill-opacity:1;fill-rule:nonzero;stroke:none;stroke-width:1;marker:none;visibility:visible;display:inline;overflow:visible" />
  <path
     d="m 10.887135,54.666932 c 0,0 0,7.999558 0,7.999558 C 6.383692,62.681544 0,60.874196 0,58.666196 0,56.458197 5.025504,54.666932 10.887135,54.666932 z"
     id="path2516-8-9"
     style="opacity:0.40206185;fill:url(#radialGradient3682);fill-opacity:1;fill-rule:nonzero;stroke:none;stroke-width:1;marker:none;visibility:visible;display:inline;overflow:visible" />
  <rect
     width="58.997868"
     height="48.997868"
     rx="1.4989328"
     ry="1.4989328"
     x="2.5010664"
     y="10.501066"
     id="rect2551-5-8"
     style="fill:url(#linearGradient3677);fill-opacity:1;fill-rule:evenodd;stroke:url(#linearGradient3679);stroke-width:1.00213289;stroke-linecap:round;stroke-linejoin:round;stroke-miterlimit:4;stroke-opacity:1;stroke-dasharray:none;stroke-dashoffset:0" />
  <rect
     width="49"
     height="39"
     rx="0"
     ry="0"
     x="7.5"
     y="15.500001"
     id="rect1314-3-3"
     style="color:#000000;fill:url(#radialGradient3672);fill-opacity:1;fill-rule:nonzero;stroke:url(#linearGradient3674);stroke-width:0.99999988;stroke-linecap:round;stroke-linejoin:round;stroke-miterlimit:4;stroke-opacity:1;stroke-dasharray:none;stroke-dashoffset:0;marker:none;visibility:visible;display:inline;overflow:visible;enable-background:accumulate" />
  <rect
     width="50.997868"
     height="40.997868"
     rx="0"
     ry="0"
     x="6.5010662"
     y="14.501067"
     id="rect2221-3-8"
     style="opacity:0.4;fill:none;stroke:url(#linearGradient3669);stroke-width:1.00213289;stroke-linecap:round;stroke-linejoin:round;stroke-miterlimit:4;stroke-opacity:1;stroke-dasharray:none;stroke-dashoffset:0" />
  <rect
     width="56.996269"
     height="46.996269"
     rx="0.49813178"
     ry="0.49813175"
     x="3.5018659"
     y="11.501866"
     id="rect2556-8-5"
     style="opacity:0.8;fill:none;stroke:url(#linearGradient3666);stroke-width:1.00373149;stroke-linecap:round;stroke-linejoin:round;stroke-miterlimit:4;stroke-opacity:1;stroke-dasharray:none;stroke-dashoffset:0" />
  <path
     d="m 34.999994,39.999992 0,-3 -11,0 0,3 11,0 z"
     id="path3651-7-2"
     style="opacity:0.4;fill:#000000;fill-opacity:1;stroke:none" />
  <path
     d="m 34.999994,39 0,-3 -11,0 0,3 11,0 z"
     id="path3651-2"
     style="fill:url(#linearGradient3662);fill-opacity:1;stroke:none" />
  <path
     d="M 14.742852,37 11.999995,34.272727 18.171423,29.500001 11.999995,24.727273 14.742852,22 23.999995,29.500001 14.742852,37 z"
     id="path3653-3-2"
     style="opacity:0.4;fill:#000000;fill-opacity:1;stroke:none" />
  <path
     d="m 14.742852,35.999992 -2.742857,-2.727272 6.171428,-4.772728 -6.171428,-4.772727 2.742857,-2.727273 9.257143,7.5 -9.257143,7.5 z"
     id="path3653-7"
     style="fill:url(#linearGradient3658);fill-opacity:1;stroke:none" />
  <path
     d="M 5.7619074,10.999994 C 4.2363491,10.999994 3,12.312001 3,13.930903 l 0,21.437534 c 0.00395,0.180347 0.078036,0.350895 0.2054914,0.470242 0.1274682,0.119343 0.2961955,0.176583 0.4652522,0.157811 L 60.48707,26.450089 C 60.779336,26.401181 60.995914,26.135985 61,25.822036 l 0,-11.891133 c 0,-1.618902 -1.236349,-2.930909 -2.761907,-2.930909 l -52.4761856,0 0,0 z"
     id="path3333-3-0"
     style="opacity:0.2;fill:url(#linearGradient3655);fill-opacity:1;fill-rule:evenodd;stroke:none" />
  <rect
     width="47"
     height="37"
     rx="0"
     ry="0"
     x="8.5"
     y="16.5"
     id="rect1314-3-3-9"
     style="opacity:0.1;color:#000000;fill:none;stroke:url(#linearGradient3652);stroke-width:0.99999988;stroke-linecap:round;stroke-linejoin:round;stroke-miterlimit:4;stroke-opacity:1;stroke-dasharray:none;stroke-dashoffset:0;marker:none;visibility:visible;display:inline;overflow:visible;enable-background:accumulate" />
</svg>

<?xml version="1.0" encoding="UTF-8" standalone="no"?>
<!-- Created with Inkscape (http://www.inkscape.org/) -->
<svg id="svg4813" xmlns:rdf="http://www.w3.org/1999/02/22-rdf-syntax-ns#" xmlns="http://www.w3.org/2000/svg" height="64" width="64" version="1.1" xmlns:cc="http://creativecommons.org/ns#" xmlns:xlink="http://www.w3.org/1999/xlink" xmlns:dc="http://purl.org/dc/elements/1.1/">
 <metadata id="metadata69">
  <rdf:RDF>
   <cc:Work rdf:about="">
    <dc:format>image/svg+xml</dc:format>
    <dc:type rdf:resource="http://purl.org/dc/dcmitype/StillImage"/>
    <dc:title/>
   </cc:Work>
  </rdf:RDF>
 </metadata>
 <defs id="defs4815">
  <linearGradient id="linearGradient3680-6">
   <stop id="stop3682-4" style="stop-color:#dcdcdc" offset="0"/>
   <stop id="stop3684-8" style="stop-color:#fff" offset="1"/>
  </linearGradient>
  <linearGradient id="linearGradient5060-6-6-5">
   <stop id="stop5062-3-0-3" offset="0"/>
   <stop id="stop5064-1-4-9" style="stop-opacity:0" offset="1"/>
  </linearGradient>
  <linearGradient id="linearGradient3652" y2="44" gradientUnits="userSpaceOnUse" x2="16.143" gradientTransform="matrix(1.2052 0 0 .94879 3.0752 12.229)" y1="4" x1="16.143">
   <stop id="stop2225-6-4-7-2" style="stop-color:#fff" offset="0"/>
   <stop id="stop2229-2-5-5-8" style="stop-color:#fff;stop-opacity:0" offset="1"/>
  </linearGradient>
  <linearGradient id="linearGradient3655" y2="24.628" gradientUnits="userSpaceOnUse" x2="20.055" gradientTransform="matrix(1.2626 0 0 1.3398 1.698 3.0028)" y1="15.298" x1="16.626">
   <stop id="stop2687-1-9-0-2" style="stop-color:#fff" offset="0"/>
   <stop id="stop2689-5-4-3-1" style="stop-color:#fff;stop-opacity:0" offset="1"/>
  </linearGradient>
  <linearGradient id="linearGradient3658" y2="16" xlink:href="#linearGradient3680-6" gradientUnits="userSpaceOnUse" x2="16" gradientTransform="matrix(1.3714 0 0 1.3636 -1.7143 -.81819)" y1="27.045" x1="16"/>
  <linearGradient id="linearGradient3662" y2="26" xlink:href="#linearGradient3680-6" gradientUnits="userSpaceOnUse" x2="20" gradientTransform="matrix(1.375 0 0 1.5 -.75001 -3)" y1="28" x1="20"/>
  <linearGradient id="linearGradient3666" y2="47.279" gradientUnits="userSpaceOnUse" x2="12.213" gradientTransform="matrix(1.2655 0 0 1.2039 1.6269 7.3166)" y1="2.9165" x1="12.579">
   <stop id="stop2240-1-6-7-0" style="stop-color:#fff" offset="0"/>
   <stop id="stop2242-7-3-7-2" style="stop-color:#fff;stop-opacity:0" offset="1"/>
  </linearGradient>
  <linearGradient id="linearGradient3669" y2="33.296" gradientUnits="userSpaceOnUse" x2="23.071" gradientTransform="matrix(1.296 0 0 1.3378 .90331 8.2994)" y1="36.047" x1="23.071">
   <stop id="stop2225-6-4-7" style="stop-color:#fff" offset="0"/>
   <stop id="stop2229-2-5-5" style="stop-color:#fff;stop-opacity:0" offset="1"/>
  </linearGradient>
  <radialGradient id="radialGradient3672" gradientUnits="userSpaceOnUse" cy="8.4498" cx="7.4957" gradientTransform="matrix(0 2.2999 -3.8677 -9.7048e-8 64.681 -1.1584)" r="20">
   <stop id="stop2749" style="stop-color:#d78ec1" offset="0"/>
   <stop id="stop2751" style="stop-color:#c564be" offset=".26238"/>
   <stop id="stop2753" style="stop-color:#9d3ea4" offset=".66094"/>
   <stop id="stop2755" style="stop-color:#5e2c73" offset="1"/>
  </radialGradient>
  <linearGradient id="linearGradient3674" y2="4.5746" gradientUnits="userSpaceOnUse" x2="5.228" gradientTransform="matrix(1.2565 0 0 1.0001 1.8444 10.998)" y1="42.854" x1="5.228">
   <stop id="stop2759" style="stop-color:#650d5c" offset="0"/>
   <stop id="stop2761" style="stop-color:#5e2c59" offset="1"/>
  </linearGradient>
  <linearGradient id="linearGradient3677" y2="43.865" gradientUnits="userSpaceOnUse" x2="24" gradientTransform="matrix(1.3111 0 0 1.3243 .53297 .56708)" y1="7.96" x1="24">
   <stop id="stop4324-9-7" style="stop-color:#f0f0f0" offset="0"/>
   <stop id="stop2860-4-4" style="stop-color:#d7d7d8" offset=".085525"/>
   <stop id="stop2862-5-9" style="stop-color:#b2b2b3" offset=".92166"/>
   <stop id="stop4326-1-1" style="stop-color:#979798" offset="1"/>
  </linearGradient>
  <linearGradient id="linearGradient3679" y2="2.8765" gradientUnits="userSpaceOnUse" x2="10.014" gradientTransform="matrix(1.2553 0 0 1.1965 1.8719 6.2692)" y1="44.96" x1="10.014">
   <stop id="stop4334-7-6" style="stop-color:#595959" offset="0"/>
   <stop id="stop4336-8-0" style="stop-color:#b3b3b3" offset="1"/>
  </linearGradient>
  <radialGradient id="radialGradient3682" xlink:href="#linearGradient5060-6-6-5" gradientUnits="userSpaceOnUse" cy="486.65" cx="605.71" gradientTransform="matrix(-.087450 0 0 .032941 63.59 42.589)" r="117.14"/>
  <radialGradient id="radialGradient3685" xlink:href="#linearGradient5060-6-6-5" gradientUnits="userSpaceOnUse" cy="486.65" cx="605.71" gradientTransform="matrix(.087450 0 0 .032941 .41038 42.589)" r="117.14"/>
  <linearGradient id="linearGradient3688" y2="609.51" gradientUnits="userSpaceOnUse" x2="302.86" gradientTransform="matrix(.087450 0 0 .032941 .39317 42.589)" y1="366.65" x1="302.86">
   <stop id="stop5050-5-6-4" style="stop-opacity:0" offset="0"/>
   <stop id="stop5056-9-0-1" offset=".5"/>
   <stop id="stop5052-6-9-5" style="stop-opacity:0" offset="1"/>
  </linearGradient>
 </defs>
 <rect id="rect2512-9-5" style="opacity:.40206;fill:url(#linearGradient3688)" height="8" width="42.226" y="54.667" x="10.887"/>
 <path id="path2514-7-4" style="opacity:.40206;fill:url(#radialGradient3685)" d="m53.113 54.667v7.9996c4.5034 0.01505 10.887-1.7923 10.887-4.0003s-5.0255-3.9993-10.887-3.9993z"/>
 <path id="path2516-8-9" style="opacity:.40206;fill:url(#radialGradient3682)" d="m10.887 54.667v7.9996c-4.5033 0.015-10.887-1.793-10.887-4.001s5.0255-3.999 10.887-3.999z"/>
 <rect id="rect2551-5-8" style="stroke-linejoin:round;fill-rule:evenodd;stroke:url(#linearGradient3679);stroke-linecap:round;stroke-width:1.0021;fill:url(#linearGradient3677)" rx="1.4989" ry="1.4989" height="48.998" width="58.998" y="10.501" x="2.5011"/>
 <rect id="rect1314-3-3" style="stroke-linejoin:round;color:#000000;stroke:url(#linearGradient3674);stroke-linecap:round;fill:url(#radialGradient3672)" rx="0" ry="0" height="39" width="49" y="15.5" x="7.5"/>
 <rect id="rect2221-3-8" style="opacity:.4;stroke-linejoin:round;stroke:url(#linearGradient3669);stroke-linecap:round;stroke-width:1.0021;fill:none" rx="0" ry="0" height="40.998" width="50.998" y="14.501" x="6.5011"/>
 <rect id="rect2556-8-5" style="opacity:.8;stroke-linejoin:round;stroke:url(#linearGradient3666);stroke-linecap:round;stroke-width:1.0037;fill:none" rx=".49813" ry=".49813" height="46.996" width="56.996" y="11.502" x="3.5019"/>
 <path id="path3651-7-2" style="opacity:.4" d="m35 40v-3h-11v3h11z"/>
 <path id="path3651-2" style="fill:url(#linearGradient3662)" d="m35 39v-3h-11v3h11z"/>
 <path id="path3653-3-2" style="opacity:.4" d="m14.743 37-2.743-2.727 6.171-4.773-6.171-4.773 2.743-2.727 9.257 7.5-9.257 7.5z"/>
 <path id="path3653-7" style="fill:url(#linearGradient3658)" d="m14.743 36-2.7429-2.7273 6.1714-4.7727-6.1714-4.7727 2.7429-2.7273 9.2571 7.5-9.2571 7.5z"/>
 <path id="path3333-3-0" style="opacity:.2;fill:url(#linearGradient3655);fill-rule:evenodd" d="m5.7619 11c-1.5256 0-2.7619 1.312-2.7619 2.931v21.438c0.00395 0.18035 0.078036 0.3509 0.20549 0.47024 0.12747 0.11934 0.2962 0.17658 0.46525 0.15781l56.816-9.547c0.292-0.049 0.509-0.314 0.513-0.628v-11.891c0-1.6189-1.2363-2.9309-2.7619-2.9309h-52.476z"/>
 <rect id="rect1314-3-3-9" style="opacity:.1;stroke-linejoin:round;color:#000000;stroke:url(#linearGradient3652);stroke-linecap:round;fill:none" rx="0" ry="0" height="37" width="47" y="16.5" x="8.5"/>
</svg>
